X:147
T:Merry Month of may
M:6/8
L:1/8
K:G
D|:G2G GFG|A2B c2d|e2e dBG|GFG AFD|
 |G2G GFG|A2B c2d|efg dc B|AGF G2D:|2AGF G2D|
 |:A2A A2B|cdc B2d|g2d g2d|cBc A2G|
 |A2A A2B|cdc B2d|g2d g2d|1cBA G2 G:|2cBA G2D|
